X:138
T:Groves Hornpipe, The
R:hornpipe
D:Matt Molloy
D:Seamus Ennis
Z:id:hn-hornpipe-138
M:C|
L:1/8
K:G
BA | G2GF GABc | dGBG AFDE | ~F3E FGAB | cd (3gfe dcAF |
G2GF GABc | dGBG AGFD | dfeg fdcA | A2G2 G2 :|
|: zA | B2BA Bcde | fdcA AF~F2 | DF~F2 AF~F2 | ABcA BG~G2 |
B2BA Bcde | (3fed cA dBcA | dfeg fdcA | A2G2 G2 :|
|: (3ABc | dggf g2fg | abag fgfe | d^cde fefg | abag fgfe |
dggf g2fg | abag fgfe | d^cde fdcA | A2G2 G2 :|
|: dB | Gd (3Bcd Gd (3Bcd | Fc (3ABc Fc (3ABc | Gd (3Bcd GdBc | d^cde fdcA |
Gd (3Bcd Gd (3Bcd | Fc (3ABc Fc (3ABc | dfeg fdcA | A2G2 G2 :|
|: Bd | gd (3Bcd gd (3Bcd | fc (3ABc fc (3ABc | gd (3Bcd gd (3Bcd | AG (3ABc AD (3FGA |
dedB cecA | (3BcB GB ADFA | dfeg fdcA | A2G2 G2 :| 
P:variations
|: GE | DGGF GABc | dGBG AGFD | ~F3E FGAB | cdfe (3ded (3cBA |
GBAF GABc | dGBG AGFD | dfeg fdcA | AGGF G2 :|
|: GA | B2BA Bcde | fdcd AF~F2 | DF~F2 AF~F2 | ABcA BGGA |
B2GA Bcde | fdcA dBcA | d2 (3efg fdcA |1 AGGF G2 :|2 AGGF GA ||
|: Bc | dggf g2fg | abag ~f3e | d^cde ~f3g | abag (3fga e^c |
dggf g2fg | abag (3fga e^c | df (3efg fdcA | AGGF G2 :|
|: dB | Gd (3Bcd Gd (3Bcd | Fc (3ABc Fc (3ABc | Gd (3Bcd GdBc | d^cde fdcA |
Gd (3Bcd Gd (3Bcd | Fc (3ABc Fc (3ABc | dfeg fdcA | AGGF G2 :|
|: Bd | gd (3Bcd gd (3Bcd | fc (3ABc fc (3ABc | gd (3Bcd gd (3Bcd | AGAB ADFA |
dedB (3cde cA | (3Bcd BG ADFA | df (3efg fdcA | AGGF G2 :| 

